X: 48
T: No_38_"I_Am_Dancing_in_the_Air".krn
N: Derived from No_38_"I_Am_Dancing_in_the_Air".krn
%%abc-version 2.0
%%abcx-abcm2ps-target-version 5.9.1 (29 Sep 2008)
%%abc-creator hum2abc beta
%%abcx-conversion-date 2019/03/15 08:36:13
%%humdrum-veritas 2167189561
%%humdrum-veritas-data 2424016191
%%linebreak <none>
%%barnumbers 0
L: 1/8
M: 2/4
%%staves {1 2}
V: 1 clef=bass
V: 2 clef=bass
K: B
[V:1] [K:clef=bass][M:2/4]C2CC | 
[V:2] [K:clef=bass][M:2/4]E,, z E,,E,, | 
[V:1] CA, CC | 
[V:2] E,, z z E,, | 
[V:1] C2z2 | 
[V:2] E,, z E,,E,, | 
[V:1] z2z C | 
[V:2] E,, z z E,, | 
[V:1] C2CC | 
[V:2] E,, z z E,, | 
[V:1] CA, CA, | 
[V:2] E,, z E,,E,, | 
[V:1] A,2z2 | 
[V:2] E,, z z E,, | 
[V:1] z2z A, | 
[V:2] E,, z z E,, | 
[V:1] A,2F,/ z/ A, | 
[V:2] E,, z z E,, | 
[V:1] A,2B,A, | 
[V:2] E,, z z E,, | 
[V:1] B,2z B, | 
[V:2] E,, z z E,, | 
[V:1] B,2B,B, | 
[V:2] E,, z E,,E,, | 
[V:1] B,G, B,B, | 
[V:2] E,, z E,,E,, | 
[V:1] B,G, B,B,/B,/ | 
[V:2] E,, z E,,E,, | 
[V:1] B,4- | 
[V:2] z4 | 
[V:1] B,4 ||  
[V:2] z4 ||  
[V:1] [M:3/4]B,2B,B, B,B, | 
[V:2] [M:3/4]z2E,,E,, E,,E,, | 
[V:1] B,2z4 |]  
[V:2] E,, zz4 |]  



